flaticon/sport/stationary-bike.svg

<svg xmlns="http://www.w3.org/2000/svg" width="32" height="32" viewBox="0 0 24 24">
    <path d="M 22.234375 3.414062 L 23.367188 3.414062 L 24 2.78125 L 24 1.648438 L 23.367188 1.015625 L 22.234375 1.015625 L 21.601562 1.648438 L 21.601562 1.8125 L 20.632812 1.8125 L 18 4.449219 L 18 6.585938 L 17.199219 6.585938 L 17.199219 8.320312 C 14.8125 8.84375 12.996094 10.890625 12.820312 13.386719 L 4.800781 13.386719 L 4.800781 5.785156 L 6.78125 5.785156 C 7.230469 5.785156 7.601562 5.417969 7.601562 4.945312 C 7.601562 4.539062 7.308594 4.195312 6.90625 4.136719 L 2.0625 3.390625 L 2 3.386719 C 1.339844 3.386719 0.800781 3.925781 0.800781 4.585938 C 0.800781 5.246094 1.339844 5.785156 2 5.785156 L 2.398438 5.785156 L 2.398438 13.660156 C 1.457031 14.109375 0.800781 15.070312 0.800781 16.1875 C 0.800781 17.300781 1.457031 18.261719 2.398438 18.710938 L 2.398438 19.785156 L 0 19.785156 L 0 21.785156 L 1.199219 21.785156 L 1.199219 22.984375 L 4 22.984375 L 4 21.785156 L 20 21.785156 L 20 22.984375 L 22.800781 22.984375 L 22.800781 21.785156 L 24 21.785156 L 24 19.785156 L 19.601562 19.785156 L 19.601562 19.253906 C 22.113281 18.703125 24 16.460938 24 13.785156 C 24 11.109375 22.113281 8.871094 19.601562 8.320312 L 19.601562 6.585938 L 18.800781 6.585938 L 18.800781 4.78125 L 20.964844 2.613281 L 21.601562 2.613281 L 21.601562 2.78125 Z M 22.398438 1.980469 L 22.566406 1.8125 L 23.035156 1.8125 L 23.199219 1.980469 L 23.199219 2.449219 L 23.035156 2.613281 L 22.566406 2.613281 L 22.398438 2.449219 Z M 18 7.386719 L 18.800781 7.386719 L 18.800781 8.203125 C 18.523438 8.179688 18.277344 8.179688 18 8.203125 Z M 17.199219 19.253906 L 17.199219 19.785156 L 4.800781 19.785156 L 4.800781 18.746094 L 13.347656 16.1875 C 14.082031 17.726562 15.496094 18.878906 17.199219 19.253906 Z M 13.621094 14.1875 L 16.851562 14.1875 C 16.859375 14.222656 16.871094 14.257812 16.882812 14.292969 L 13.816406 15.210938 C 13.714844 14.882812 13.648438 14.539062 13.621094 14.1875 Z M 12.820312 14.1875 C 12.851562 14.621094 12.925781 15.039062 13.050781 15.441406 L 6.050781 17.539062 C 6.054688 17.535156 6.054688 17.53125 6.054688 17.527344 C 6.058594 17.523438 6.0625 17.515625 6.066406 17.507812 C 6.070312 17.503906 6.074219 17.496094 6.078125 17.488281 C 6.078125 17.484375 6.097656 17.445312 6.101562 17.445312 C 6.109375 17.421875 6.121094 17.398438 6.132812 17.375 C 6.164062 17.304688 6.195312 17.230469 6.222656 17.15625 C 6.230469 17.136719 6.238281 17.117188 6.246094 17.097656 C 6.25 17.089844 6.261719 17.058594 6.261719 17.054688 C 6.261719 17.050781 6.261719 17.050781 6.265625 17.046875 C 6.300781 16.929688 6.332031 16.808594 6.355469 16.683594 C 6.355469 16.679688 6.355469 16.679688 6.355469 16.675781 L 6.367188 16.59375 C 6.371094 16.589844 6.371094 16.585938 6.371094 16.578125 C 6.378906 16.523438 6.386719 16.46875 6.390625 16.410156 C 6.394531 16.332031 6.398438 16.257812 6.398438 16.1875 C 6.398438 16.089844 6.394531 15.992188 6.386719 15.898438 C 6.382812 15.867188 6.375 15.835938 6.371094 15.804688 C 6.363281 15.742188 6.355469 15.679688 6.34375 15.617188 C 6.335938 15.578125 6.324219 15.542969 6.3125 15.503906 C 6.300781 15.453125 6.289062 15.398438 6.273438 15.347656 C 6.257812 15.308594 6.242188 15.269531 6.226562 15.230469 C 6.210938 15.183594 6.195312 15.136719 6.175781 15.089844 C 6.160156 15.050781 6.140625 15.011719 6.121094 14.972656 C 6.097656 14.929688 6.078125 14.886719 6.058594 14.84375 C 6.035156 14.804688 6.011719 14.769531 5.988281 14.730469 C 5.964844 14.691406 5.941406 14.652344 5.914062 14.613281 C 5.890625 14.574219 5.859375 14.539062 5.835938 14.503906 C 5.808594 14.46875 5.78125 14.429688 5.75 14.394531 C 5.722656 14.359375 5.691406 14.328125 5.660156 14.292969 C 5.628906 14.261719 5.601562 14.226562 5.570312 14.195312 C 5.566406 14.191406 5.5625 14.1875 5.558594 14.183594 Z M 2 4.984375 C 1.78125 4.984375 1.601562 4.804688 1.601562 4.585938 C 1.601562 4.375 1.765625 4.199219 1.976562 4.1875 L 6.78125 4.925781 L 6.800781 4.964844 C 6.800781 4.976562 6.792969 4.984375 6.78125 4.984375 Z M 4 5.785156 L 4 13.386719 L 3.601562 13.386719 C 3.476562 13.386719 3.355469 13.398438 3.234375 13.414062 C 3.222656 13.414062 3.210938 13.414062 3.199219 13.414062 L 3.199219 5.785156 Z M 1.601562 16.1875 C 1.601562 15.269531 2.222656 14.503906 3.066406 14.265625 C 3.125 14.25 3.179688 14.234375 3.238281 14.222656 C 3.347656 14.203125 3.457031 14.191406 3.574219 14.1875 C 3.589844 14.1875 3.609375 14.1875 3.625 14.1875 C 3.742188 14.191406 3.855469 14.203125 3.964844 14.222656 C 4.019531 14.234375 4.078125 14.25 4.132812 14.265625 C 4.976562 14.503906 5.601562 15.269531 5.601562 16.1875 C 5.601562 16.3125 5.585938 16.433594 5.5625 16.554688 C 5.554688 16.59375 5.542969 16.625 5.535156 16.664062 C 5.511719 16.753906 5.488281 16.84375 5.453125 16.929688 C 5.445312 16.949219 5.4375 16.96875 5.429688 16.988281 C 5.390625 17.074219 5.34375 17.15625 5.292969 17.238281 C 5.273438 17.269531 5.257812 17.300781 5.234375 17.328125 C 5.1875 17.402344 5.128906 17.464844 5.074219 17.527344 C 5.035156 17.570312 4.992188 17.613281 4.949219 17.652344 C 4.886719 17.710938 4.816406 17.769531 4.746094 17.820312 C 4.710938 17.84375 4.667969 17.867188 4.632812 17.890625 C 4.570312 17.929688 4.507812 17.964844 4.441406 17.996094 C 4.394531 18.015625 4.351562 18.035156 4.304688 18.050781 C 4.25 18.070312 4.191406 18.089844 4.132812 18.105469 C 4.078125 18.121094 4.019531 18.136719 3.960938 18.148438 C 3.851562 18.167969 3.742188 18.179688 3.625 18.183594 C 3.609375 18.183594 3.589844 18.183594 3.574219 18.183594 C 3.457031 18.179688 3.34375 18.167969 3.238281 18.148438 C 3.179688 18.136719 3.121094 18.121094 3.066406 18.105469 C 2.222656 17.871094 1.601562 17.101562 1.601562 16.1875 Z M 4 18.957031 L 4 19.785156 L 3.199219 19.785156 L 3.199219 18.957031 C 3.210938 18.957031 3.222656 18.957031 3.234375 18.957031 C 3.355469 18.976562 3.476562 18.984375 3.601562 18.984375 C 3.726562 18.984375 3.847656 18.972656 3.96875 18.957031 C 3.976562 18.957031 3.988281 18.957031 4 18.957031 Z M 3.199219 22.1875 L 2 22.1875 L 2 21.785156 L 3.199219 21.785156 Z M 22 22.1875 L 20.800781 22.1875 L 20.800781 21.785156 L 22 21.785156 Z M 23.199219 20.585938 L 23.199219 20.984375 L 0.800781 20.984375 L 0.800781 20.585938 Z M 18 19.785156 L 18 19.367188 C 18.277344 19.390625 18.523438 19.390625 18.800781 19.367188 L 18.800781 19.785156 Z M 19.140625 9.050781 L 19.375 9.085938 C 21.554688 9.539062 23.199219 11.472656 23.199219 13.785156 C 23.199219 16.097656 21.554688 18.035156 19.375 18.484375 L 19.136719 18.523438 C 19.015625 18.542969 18.902344 18.554688 18.789062 18.566406 C 18.660156 18.574219 18.53125 18.585938 18.398438 18.585938 C 18.265625 18.585938 18.136719 18.578125 18.007812 18.566406 C 17.898438 18.554688 17.785156 18.542969 17.660156 18.523438 L 17.425781 18.484375 C 15.980469 18.1875 14.777344 17.234375 14.125 15.957031 L 17.355469 14.988281 C 17.636719 15.230469 18 15.386719 18.398438 15.386719 C 19.28125 15.386719 20 14.667969 20 13.785156 C 20 12.902344 19.28125 12.1875 18.398438 12.1875 C 17.65625 12.1875 17.035156 12.699219 16.855469 13.386719 L 13.621094 13.386719 C 13.796875 11.253906 15.371094 9.511719 17.425781 9.085938 L 17.660156 9.050781 C 17.785156 9.03125 17.898438 9.015625 18.007812 9.003906 C 18.136719 8.996094 18.269531 8.984375 18.398438 8.984375 C 18.53125 8.984375 18.660156 8.996094 18.789062 9.003906 C 18.902344 9.015625 19.015625 9.03125 19.140625 9.050781 Z M 17.601562 13.785156 C 17.601562 13.34375 17.957031 12.984375 18.398438 12.984375 C 18.839844 12.984375 19.199219 13.34375 19.199219 13.785156 C 19.199219 14.226562 18.839844 14.585938 18.398438 14.585938 C 18.152344 14.585938 17.933594 14.472656 17.789062 14.292969 C 17.785156 14.292969 17.785156 14.289062 17.78125 14.285156 C 17.699219 14.183594 17.601562 14.011719 17.601562 13.785156 Z M 17.601562 13.785156"/>
    <path d="M 19.011719 1.40625 L 19.578125 1.972656 L 17.882812 3.667969 L 17.316406 3.101562 Z M 19.011719 1.40625"/>
</svg>

<svg xmlns="http://www.w3.org/2000/svg" width="32" height="32" viewBox="0 0 24 24">
    <path d="M22.234 3.414h1.133L24 2.781V1.648l-.633-.632h-1.133l-.632.632v.165h-.97L18 4.449v2.137h-.8V8.32a5.6 5.6 0 0 0-4.38 5.067H4.8V5.785h1.981c.45 0 .82-.367.82-.84a.813.813 0 0 0-.695-.808L2.063 3.39 2 3.387c-.66 0-1.2.539-1.2 1.199s.54 1.2 1.2 1.2h.398v7.874a2.8 2.8 0 0 0-1.597 2.527 2.8 2.8 0 0 0 1.597 2.524v1.074H0v2h1.2v1.2H4v-1.2h16v1.2h2.8v-1.2H24v-2h-4.398v-.531A5.608 5.608 0 0 0 24 13.785a5.604 5.604 0 0 0-4.398-5.465V6.586H18.8V4.78l2.164-2.168h.637v.168zm.164-1.434l.168-.167h.47l.163.167v.47l-.164.163h-.469l-.168-.164zM18 7.387h.8v.816a4.569 4.569 0 0 0-.8 0zm-.8 11.867v.531H4.8v-1.039l8.548-2.558a5.62 5.62 0 0 0 3.851 3.066zm-3.579-5.067h3.23c.008.036.02.07.032.106l-3.067.918a4.696 4.696 0 0 1-.195-1.024zm-.8 0c.03.434.105.852.23 1.254l-7 2.098c.004-.004.004-.008.004-.012.004-.004.008-.011.011-.02a.085.085 0 0 0 .012-.019c0-.004.02-.043.024-.043.007-.023.02-.047.03-.07.032-.07.063-.145.09-.219l.024-.058a.297.297 0 0 0 .016-.043c0-.004 0-.004.004-.008.035-.117.066-.238.09-.363v-.008l.011-.082c.004-.004.004-.008.004-.016.008-.055.016-.11.02-.168a3.504 3.504 0 0 0-.004-.512c-.004-.03-.012-.062-.016-.093-.008-.063-.016-.125-.027-.188-.008-.039-.02-.074-.032-.113-.011-.05-.023-.106-.039-.156l-.046-.118a2.028 2.028 0 0 0-.051-.14c-.016-.04-.035-.078-.055-.117-.023-.043-.043-.086-.062-.13-.024-.038-.047-.073-.07-.113a1.944 1.944 0 0 0-.075-.117c-.023-.039-.055-.074-.078-.11-.027-.034-.055-.073-.086-.108-.027-.036-.059-.067-.09-.102-.031-.031-.058-.066-.09-.098l-.011-.011zM2 4.985a.398.398 0 1 1-.023-.797l4.804.739.02.039c0 .012-.008.02-.02.02zm2 .801v7.602h-.398a2.85 2.85 0 0 0-.368.027H3.2V5.785zM1.602 16.187a2 2 0 0 1 1.464-1.921c.059-.016.114-.032.172-.043.11-.02.219-.032.336-.036h.051c.117.004.23.016.34.036.055.011.113.027.168.043a2.004 2.004 0 0 1 1.469 1.921c0 .125-.016.247-.04.368-.007.039-.019.07-.027.11-.023.089-.047.179-.082.265l-.023.058c-.04.086-.086.168-.137.25-.02.032-.035.063-.059.09-.046.074-.105.137-.16.2a2.107 2.107 0 0 1-.328.293c-.035.023-.078.046-.113.07-.063.039-.125.074-.192.105-.046.02-.09.04-.136.055a2.21 2.21 0 0 1-.172.054 2.21 2.21 0 0 1-.172.043c-.11.02-.219.032-.336.036h-.05a2.271 2.271 0 0 1-.337-.036 2.21 2.21 0 0 1-.172-.043 1.995 1.995 0 0 1-1.464-1.918zM4 18.957v.828h-.8v-.828h.034c.121.02.243.027.368.027s.246-.011.367-.027H4zm-.8 3.23H2v-.402h1.2zm18.8 0h-1.2v-.402H22zm1.2-1.601v.398H.8v-.398zm-5.2-.8v-.419c.277.024.523.024.8 0v.418zM19.14 9.05l.235.035a4.809 4.809 0 0 1 3.824 4.7 4.805 4.805 0 0 1-3.824 4.698l-.238.04c-.121.019-.235.03-.348.042-.129.008-.258.02-.39.02-.133 0-.262-.008-.391-.02-.11-.011-.223-.023-.348-.043l-.234-.039a4.806 4.806 0 0 1-3.301-2.527l3.23-.969a1.6 1.6 0 0 0 1.043.399 1.6 1.6 0 0 0 0-3.2 1.6 1.6 0 0 0-1.543 1.2h-3.234a4.806 4.806 0 0 1 3.805-4.301l.234-.035c.125-.02.238-.035.348-.047.129-.008.262-.02.39-.02.133 0 .262.012.391.02.113.012.227.027.352.047zm-1.538 4.734a.799.799 0 1 1 1.597 0c0 .442-.36.8-.8.8a.778.778 0 0 1-.61-.292c-.004 0-.004-.004-.008-.008a.798.798 0 0 1-.18-.5zm0 0"/>
    <path d="M19.012 1.406l.566.567-1.695 1.695-.567-.566zm0 0"/>
</svg>
